packages/kaspersky-hexa-ui-icons/src/iconsSVGs/24/ArrowBack.svg

<svg width="24" height="24" viewBox="0 0 24 24" fill="none" xmlns="http://www.w3.org/2000/svg">
<path fill-rule="evenodd" clip-rule="evenodd" d="M10.7071 4.29289C11.0976 4.68342 11.0976 5.31658 10.7071 5.70711L5.41421 11H21C21.5523 11 22 11.4477 22 12C22 12.5523 21.5523 13 21 13H5.41421L10.7071 18.2929C11.0976 18.6834 11.0976 19.3166 10.7071 19.7071C10.3166 20.0976 9.68342 20.0976 9.29289 19.7071L2.29289 12.7071C1.90237 12.3166 1.90237 11.6834 2.29289 11.2929L9.29289 4.29289C9.68342 3.90237 10.3166 3.90237 10.7071 4.29289Z" fill="black"/>
</svg>

<svg xmlns="http://www.w3.org/2000/svg" width="24" height="24" fill="none" viewBox="0 0 24 24"><path fill="#000" fill-rule="evenodd" d="M10.7071 4.2929c.3905.3905.3905 1.0237 0 1.4142L5.4142 11H21c.5523 0 1 .4477 1 1s-.4477 1-1 1H5.4142l5.2929 5.2929c.3905.3905.3905 1.0237 0 1.4142s-1.0237.3905-1.4142 0l-7-7c-.3905-.3905-.3905-1.0237 0-1.4142l7-7c.3905-.3905 1.0237-.3905 1.4142 0"/></svg>
